src/assets/icon/Icon=follower.svg

<svg width="16" height="16" viewBox="0 0 16 16" fill="none" xmlns="http://www.w3.org/2000/svg">
<path d="M11.8293 0H4.17067C3.06472 0.00125529 2.00444 0.441229 1.22253 1.22337C0.440614 2.0055 0.000941056 3.0659 0 4.17185V11.8281C0.000941056 12.9341 0.440614 13.9945 1.22253 14.7766C2.00444 15.5588 3.06472 15.9987 4.17067 16H11.8293C12.9352 15.9984 13.9953 15.5584 14.7771 14.7763C15.559 13.9942 15.9987 12.934 16 11.8281V4.17185C15.9991 3.0659 15.5594 2.0055 14.7775 1.22337C13.9956 0.441229 12.9353 0.00125529 11.8293 0ZM4.17067 1.77778H11.8293C12.4639 1.77872 13.0722 2.03129 13.5207 2.4801C13.9693 2.9289 14.2216 3.5373 14.2222 4.17185V11.5473C13.418 10.9577 12.5325 10.4879 11.5935 10.1523C11.7879 9.68415 11.8886 9.18163 11.8898 8.67437V7.48089C11.8898 6.44941 11.48 5.46018 10.7507 4.73082C10.0213 4.00146 9.03207 3.5917 8.00059 3.5917C6.96912 3.5917 5.97989 4.00146 5.25052 4.73082C4.52116 5.46018 4.11141 6.44941 4.11141 7.48089V8.67437C4.11141 9.18163 4.21215 9.68415 4.40652 10.1523C3.46785 10.4877 2.58133 10.9582 1.77778 11.5473V4.17185C1.7784 3.5373 2.03068 2.9289 2.47926 2.4801C2.92784 2.03129 3.53612 1.77872 4.17067 1.77778ZM10.1108 8.67556C10.1108 9.23538 9.88843 9.77227 9.49257 10.1681C9.09672 10.564 8.55982 10.7864 8 10.7864C7.44018 10.7864 6.90328 10.564 6.50743 10.1681C6.11157 9.77227 5.88918 9.23538 5.88918 8.67556V7.4797C5.88918 6.91988 6.11157 6.38299 6.50743 5.98713C6.90328 5.59128 7.44018 5.36889 8 5.36889C8.55982 5.36889 9.09672 5.59128 9.49257 5.98713C9.88843 6.38299 10.1108 6.91988 10.1108 7.4797V8.67319V8.67556ZM11.8293 14.2222H4.17067C3.83727 14.2214 3.50777 14.1505 3.20355 14.0141C2.89933 13.8777 2.62717 13.6789 2.40474 13.4305C2.42961 13.3191 2.49246 13.2198 2.58252 13.1496C3.46379 12.4671 4.46929 11.9623 5.54311 11.6634C6.2295 12.2441 7.09934 12.5629 7.99838 12.5633C8.89742 12.5637 9.76757 12.2458 10.4545 11.6658C11.5295 11.9621 12.5357 12.467 13.4175 13.1496C13.5076 13.2207 13.5704 13.3191 13.5953 13.4305C13.3728 13.6789 13.1007 13.8777 12.7965 14.0141C12.4922 14.1505 12.1627 14.2214 11.8293 14.2222Z" fill="black"/>
</svg>

<svg xmlns="http://www.w3.org/2000/svg" width="16" height="16" fill="none" viewBox="0 0 16 16"><path fill="#000" d="M11.83 0H4.17A4.175 4.175 0 0 0 0 4.172v7.656A4.175 4.175 0 0 0 4.17 16h7.66A4.176 4.176 0 0 0 16 11.828V4.172A4.175 4.175 0 0 0 11.83 0zM4.17 1.778h7.66a2.396 2.396 0 0 1 2.392 2.394v7.375a10.32 10.32 0 0 0-2.628-1.395 3.88 3.88 0 0 0 .296-1.478V7.481a3.89 3.89 0 0 0-7.779 0v1.193c0 .508.101 1.01.296 1.478a10.34 10.34 0 0 0-2.63 1.395V4.172a2.396 2.396 0 0 1 2.394-2.394zm5.94 6.898a2.11 2.11 0 1 1-4.22 0V7.48a2.11 2.11 0 0 1 4.22 0v1.196zm1.72 5.546H4.17a2.378 2.378 0 0 1-1.765-.791.492.492 0 0 1 .178-.281 8.603 8.603 0 0 1 2.96-1.487 3.804 3.804 0 0 0 4.911.003 8.556 8.556 0 0 1 2.963 1.484c.09.07.153.17.178.28a2.38 2.38 0 0 1-1.766.792z"/></svg>
